themes/default/assets/images/icons/mid/visual.svg

<?xml version="1.0" encoding="UTF-8"?>
<svg width="100px" height="75px" viewBox="0 0 100 75" version="1.1" xmlns="http://www.w3.org/2000/svg" xmlns:xlink="http://www.w3.org/1999/xlink">
    <!-- Generator: sketchtool 59 (101010) - https://sketch.com -->
    <title>AD8B4150-E3C4-49DD-8D58-2F846BDF67E3</title>
    <desc>Created with sketchtool.</desc>
    <g id="Page-1" stroke="none" stroke-width="1" fill="none" fill-rule="evenodd">
        <g id="Icons" transform="translate(-853.000000, -2286.000000)" fill-rule="nonzero">
            <g id="mid-icon-visual" transform="translate(853.000000, 2286.000000)">
                <path d="M45.0392157,51.4736842 L17.6470588,51.4736842 L17.6470588,31.0361842 L45.0392157,31.0361842 L45.0392157,51.4736842 Z M19.0294118,50.0921053 L43.6764706,50.0921053 L43.6764706,32.4078947 L19.0294118,32.4078947 L19.0294118,50.0921053 Z" id="Shape" fill="#002465"></path>
                <path d="M54.9901961,13.4111842 L18.3333333,13.4111842 C18.1522296,13.4138264 17.9776372,13.3432549 17.848646,13.2152699 C17.7196548,13.087285 17.6470588,12.9125775 17.6470588,12.7302632 C17.6470588,12.5505659 17.7186216,12.3783683 17.8457743,12.2522339 C17.9729271,12.1260996 18.1450259,12.0565679 18.3235294,12.0592105 L54.9901961,12.0592105 C55.1686996,12.0565679 55.3407984,12.1260996 55.4679511,12.2522339 C55.5951039,12.3783683 55.6666667,12.5505659 55.6666667,12.7302632 C55.6666667,12.9108546 55.5953959,13.0840496 55.468533,13.2117471 C55.3416702,13.3394445 55.1696072,13.4111842 54.9901961,13.4111842 L54.9901961,13.4111842 Z" id="Path" fill="#2364F9"></path>
                <path d="M48.254902,18.2368421 L18.3333333,18.2368421 C18.1539222,18.2368421 17.9818592,18.1651024 17.8549964,18.0374049 C17.7281335,17.9097075 17.6568627,17.7365125 17.6568627,17.5559211 C17.6568627,17.3762237 17.7284255,17.2040261 17.8555783,17.0778918 C17.982731,16.9517575 18.1548298,16.8822258 18.3333333,16.8848684 L48.254902,16.8848684 C48.4334055,16.8822258 48.6055043,16.9517575 48.732657,17.0778918 C48.8598098,17.2040261 48.9313726,17.3762237 48.9313726,17.5559211 C48.9313726,17.7365125 48.8601017,17.9097075 48.7332389,18.0374049 C48.6063761,18.1651024 48.4343131,18.2368421 48.254902,18.2368421 Z" id="Path" fill="#2364F9"></path>
                <path d="M52.0980392,23.0625 L18.3333333,23.0625 C18.1548298,23.0651426 17.982731,22.995611 17.8555783,22.8694766 C17.7284255,22.7433423 17.6568627,22.5711447 17.6568627,22.3914474 C17.6568627,22.2108559 17.7281335,22.0376609 17.8549964,21.9099635 C17.9818592,21.782266 18.1539222,21.7105263 18.3333333,21.7105263 L52.0980392,21.7105263 C52.279143,21.7078841 52.4537353,21.7784556 52.5827265,21.9064406 C52.7117177,22.0344256 52.7843137,22.209133 52.7843137,22.3914474 C52.7817323,22.5720449 52.7079737,22.7442113 52.5792682,22.8700621 C52.4505626,22.9959129 52.2774559,23.0651363 52.0980392,23.0625 L52.0980392,23.0625 Z" id="Path" fill="#2364F9"></path>
                <path d="M99.0196078,55.5888158 L99.0196078,55.5888158 L98.6960784,5.30921053 C98.7803241,3.85999494 98.2821852,2.43753777 97.3137255,1.36184211 C96.2389839,0.401921168 94.8254496,-0.0818423273 93.3921569,0.0197368421 L6.24509804,0.0197368421 C2.7745098,1.53176083e-15 0.980392157,1.88486842 0.980392157,5.37828947 L0.980392157,56.1118421 C0.980392157,56.1118421 0.980392157,56.1118421 0.980392157,56.1118421 L0.980392157,58.7269737 L0.980392157,58.7269737 L0.980392157,62.6743421 C0.89050861,64.1243531 1.38939822,65.5489539 2.3627451,66.6217105 C3.42678208,67.6000065 4.84838009,68.0865297 6.28431373,67.9638158 L40.0196078,67.7861842 C39.872549,71.8223684 38.127451,72.5822368 36.6862745,72.7993421 L34.5490196,72.7993421 L34.5490196,74.0131579 L65.3039216,74.0131579 L65.3039216,72.6414474 L64.0294118,72.6414474 L63.8627451,72.6414474 C62.4705882,72.4638158 60.745098,71.7828947 60.5392157,67.8256579 L66.1764706,67.8256579 L66.1764706,68.5657895 C66.1097658,70.0404073 66.6404574,71.4791403 67.6470588,72.5526316 C68.5983161,73.4519189 69.8427072,73.9711949 71.1470588,74.0131579 L88.3823529,74.0131579 C89.709793,74.0647624 91.0000184,73.5652571 91.9509804,72.6315789 C93.0367018,71.3927045 93.6453938,69.8031947 93.6666667,68.1513158 L93.6666667,67.4703947 L93.7647059,67.4703947 L93.7647059,67.4703947 C97.2352941,67.4703947 99.0490196,65.5855263 99.0295691,62.0921053 L99.0196078,55.5888158 Z M60.6078431,72.6710526 L40.0196078,72.7993421 C40.7843137,71.9605263 41.3627451,70.1842105 41.4509804,67.7960526 L59.1764706,67.7368421 C59.2745098,70.0657895 59.8529412,71.8519737 60.6078431,72.6710526 Z M60.1372549,66.4440789 C60.0476215,66.3926687 59.9463003,66.3654719 59.8431373,66.3651316 L59.8431373,66.3651316 L41.4705882,66.4243421 L41.4705882,66.4243421 L6.35294118,66.6118421 C5.2655885,66.6954543 4.18983026,66.3404262 3.3627451,65.625 C2.66617122,64.8038867 2.31454174,63.7420583 2.38235294,62.6644737 L2.38235294,58.7171053 L66.1666667,58.3421053 L66.1666667,65.6546053 C66.1666667,65.6546053 66.1666667,65.6546053 66.1666667,65.6546053 C66.1666667,65.6546053 66.1666667,65.6546053 66.1666667,65.6546053 L66.1666667,66.2960526 L60.1372549,66.4440789 Z M67.5196078,57.7697368 C67.5196078,57.7697368 67.5196078,57.7697368 67.5196078,57.7006579 C67.5196078,57.6315789 67.5196078,57.7006579 67.5196078,57.6414474 L67.4509804,26.0625 L67.4509804,25.9835526 C67.3319261,24.8222946 67.6541914,23.6587379 68.3529412,22.7269737 C69.2548831,21.8375811 70.49669,21.3873013 71.754902,21.4934211 L88.0686275,21.4934211 C89.0082907,21.5330709 89.902504,21.9113214 90.5882353,22.5592105 C91.5012656,23.590556 91.9578737,24.951578 91.8529412,26.3289474 C91.8529412,29.625 92.0392157,46.3125 92.1666667,57.5921053 L92.1666667,57.5921053 C92.1666667,60.5526316 92.2352941,63.1085526 92.254902,64.9835526 L67.5392157,65.0822368 L67.5196078,57.7697368 Z M88.3823529,72.6414474 L71.1470588,72.6414474 C70.2114603,72.5919772 69.3214903,72.2190072 68.627451,71.5855263 C67.8707365,70.7517622 67.4847772,69.643294 67.5588235,68.5164474 L67.5588235,66.4144737 L92.2941176,66.3157895 C92.2941176,67.4407895 92.2941176,68.1118421 92.2941176,68.1611842 C92.2941176,68.2105263 92.245098,72.6414474 88.3823529,72.6414474 Z M93.2254902,26.2598684 C93.3401405,24.5127262 92.7335962,22.7953741 91.5490196,21.5131579 C90.6037925,20.610617 89.3611284,20.090605 88.0588235,20.0526316 L71.745098,20.0526316 C70.0857261,19.9387396 68.4608609,20.566966 67.3039216,21.7697368 C66.3593127,22.9796687 65.9197757,24.5122416 66.0784314,26.0427632 L66.0784314,36.6809211 L54.3137255,36.6809211 C54.0507791,36.6491155 53.7931177,36.7724437 53.6516631,36.9978136 C53.5102084,37.2231834 53.5102084,37.5103692 53.6516631,37.735739 C53.7931177,37.9611089 54.0507791,38.0844371 54.3137255,38.0526316 L66.0784314,38.0526316 L66.0784314,41.5065789 L54.3137255,41.5065789 C54.0507791,41.4747734 53.7931177,41.5981016 53.6516631,41.8234715 C53.5102084,42.0488413 53.5102084,42.3360271 53.6516631,42.5613969 C53.7931177,42.7867668 54.0507791,42.910095 54.3137255,42.8782895 L66.0784314,42.8782895 L66.0784314,46.3815789 C66.006897,46.3713219 65.9342795,46.3713219 65.8627451,46.3815789 L54.3235294,46.3815789 C54.060583,46.3497734 53.8029216,46.4731016 53.661467,46.6984715 C53.5200124,46.9238413 53.5200124,47.2110271 53.661467,47.4363969 C53.8029216,47.6617668 54.060583,47.785095 54.3235294,47.7532895 L65.9117647,47.7532895 C65.9832991,47.7635465 66.0559166,47.7635465 66.127451,47.7532895 L66.127451,57.0789474 L2.34313725,57.4539474 L2.34313725,5.37828947 C2.34313725,2.625 3.52941176,1.43092105 6.26470588,1.37171053 L93.3627451,1.37171053 C94.4336944,1.30027696 95.4897421,1.65460876 96.3039216,2.35855263 C97.0014137,3.17914341 97.353171,4.24135779 97.2843137,5.31907895 L97.5784314,56.8519737 L93.4901961,56.8519737 C93.4019608,45.5921053 93.2254902,29.5164474 93.2254902,26.2894737 L93.2254902,26.2598684 Z M93.745098,66.1184211 L93.6372549,66.1184211 C93.6372549,64.3519737 93.5882353,61.5493421 93.5490196,58.2236842 L97.627451,58.2236842 L97.627451,62.1217105 C97.6666667,64.8256579 96.4313725,66.1184211 93.745098,66.1184211 Z" id="Shape" fill="#A6C4DD"></path>
                <path d="M82.8431373,68.8322368 L82.8431373,68.8322368 L78.4803922,68.9309211 C78.2174458,68.8991155 77.9597844,69.0224437 77.8183297,69.2478136 C77.6768751,69.4731834 77.6768751,69.7603692 77.8183297,69.985739 C77.9597844,70.2111089 78.2174458,70.3344371 78.4803922,70.3026316 L78.4803922,70.3026316 L82.8431373,70.2039474 C83.1880059,70.1622327 83.4475329,69.867727 83.4475329,69.5180921 C83.4475329,69.1684572 83.1880059,68.8739515 82.8431373,68.8322368 L82.8431373,68.8322368 Z" id="Path" fill="#A6C4DD"></path>
                <path d="M89.6960784,40.6282895 L69.6078431,40.6282895 L69.6078431,27.1776316 L89.6960784,27.1776316 L89.6960784,40.6282895 Z M71.0098039,39.2565789 L88.3235294,39.2565789 L88.3235294,28.5493421 L71.0098039,28.5493421 L71.0098039,39.2565789 Z" id="Shape" fill="#002465"></path>
                <path d="M88.5,46.2828947 L70.9901961,46.2828947 C70.6165917,46.2828947 70.3137255,45.978036 70.3137255,45.6019737 C70.3137255,45.2259114 70.6165917,44.9210526 70.9901961,44.9210526 L88.5,44.9210526 C88.8736044,44.9210526 89.1764706,45.2259114 89.1764706,45.6019737 C89.1764706,45.978036 88.8736044,46.2828947 88.5,46.2828947 Z" id="Path" fill="#2364F9"></path>
                <path d="M83.8039216,51.1085526 L70.9901961,51.1085526 C70.6165917,51.1085526 70.3137255,50.8036939 70.3137255,50.4276316 C70.3137255,50.2479343 70.3852883,50.0757367 70.512441,49.9496023 C70.6395937,49.823468 70.8116926,49.7539363 70.9901961,49.7565789 L83.8039216,49.7565789 C83.9824251,49.7539363 84.1545239,49.823468 84.2816766,49.9496023 C84.4088294,50.0757367 84.4803922,50.2479343 84.4803922,50.4276316 C84.4803922,50.8036939 84.177526,51.1085526 83.8039216,51.1085526 L83.8039216,51.1085526 Z" id="Path" fill="#2364F9"></path>
                <path d="M86.4901961,55.9342105 L70.9901961,55.9342105 C70.6165917,55.9342105 70.3137255,55.6293518 70.3137255,55.2532895 C70.3137255,55.0735922 70.3852883,54.9013946 70.512441,54.7752602 C70.6395937,54.6491259 70.8116926,54.5795942 70.9901961,54.5822368 L86.4901961,54.5822368 C86.6686996,54.5795942 86.8407984,54.6491259 86.9679511,54.7752602 C87.0951039,54.9013946 87.1666667,55.0735922 87.1666667,55.2532895 C87.1666667,55.6293518 86.8638005,55.9342105 86.4901961,55.9342105 L86.4901961,55.9342105 Z" id="Path" fill="#2364F9"></path>
            </g>
        </g>
    </g>
</svg>

<svg width="100" height="75" xmlns="http://www.w3.org/2000/svg"><g fill-rule="nonzero" fill="none"><path d="M45.04 51.474H17.646V31.036H45.04v20.438zm-26.01-1.382h24.646V32.408H19.03v17.684z" fill="#002465"/><path d="M54.99 13.411H18.333a.674.674 0 01-.484-.196.683.683 0 01-.003-.963.664.664 0 01.478-.193H54.99a.664.664 0 01.478.193.683.683 0 010 .96.674.674 0 01-.478.2zM48.255 18.237H18.333a.674.674 0 01-.478-.2.683.683 0 010-.96.664.664 0 01.478-.192h29.922a.664.664 0 01.478.193.683.683 0 010 .96.674.674 0 01-.478.199zM52.098 23.063H18.333a.664.664 0 01-.477-.194.683.683 0 010-.96.674.674 0 01.477-.198h33.765a.674.674 0 01.485.195.683.683 0 01.201.485.683.683 0 01-.205.48.674.674 0 01-.481.192z" fill="#2364F9"/><path d="M99.02 55.589l-.324-50.28a5.43 5.43 0 00-1.382-3.947A5.321 5.321 0 0093.392.02H6.245C2.775 0 .98 1.885.98 5.378V62.674a5.38 5.38 0 001.383 3.948 5.146 5.146 0 003.921 1.342l33.736-.178c-.147 4.036-1.893 4.796-3.334 5.013H34.55v1.214h30.755v-1.372H63.863c-1.392-.177-3.118-.858-3.324-4.815h5.637v.74a5.468 5.468 0 001.471 3.987 5.345 5.345 0 003.5 1.46h17.235a4.826 4.826 0 003.569-1.381 6.934 6.934 0 001.716-4.48v-.682h.098c3.47 0 5.284-1.884 5.265-5.378l-.01-6.503zM60.608 72.67L40.02 72.8c.764-.838 1.343-2.615 1.431-5.003l17.725-.06c.099 2.33.677 4.116 1.432 4.935zm-.47-6.227a.595.595 0 00-.295-.079l-18.372.06-35.118.187a4.09 4.09 0 01-2.99-.987 4.172 4.172 0 01-.98-2.96v-3.948l63.784-.375v7.954l-6.03.148zm7.382-8.674v-.07-.059l-.069-31.578v-.08a4.64 4.64 0 01.902-3.256 4.327 4.327 0 013.402-1.234h16.314c.94.04 1.834.418 2.52 1.066a5.103 5.103 0 011.264 3.77c0 3.296.186 19.983.314 31.263 0 2.96.068 5.517.088 7.392l-24.716.098-.02-7.312zM88.382 72.64H71.147a4.055 4.055 0 01-2.52-1.055 4.161 4.161 0 01-1.068-3.07v-2.102l24.735-.098v1.845c0 .05-.049 4.48-3.912 4.48zm4.843-46.381a6.38 6.38 0 00-1.676-4.747 5.276 5.276 0 00-3.49-1.46H71.745a5.627 5.627 0 00-4.441 1.717 5.949 5.949 0 00-1.226 4.273V36.68H54.314a.685.685 0 00-.662.317.695.695 0 000 .738c.141.225.399.348.662.317h11.764v3.454H54.314a.685.685 0 00-.662.316.695.695 0 000 .738c.141.226.399.35.662.317h11.764v3.504a.76.76 0 00-.215 0h-11.54a.685.685 0 00-.662.316.695.695 0 000 .738c.142.226.4.35.663.317h11.588a.76.76 0 00.215 0v9.326l-63.784.375V5.378c0-2.753 1.186-3.947 3.922-4.006h87.098a4.08 4.08 0 012.94.987c.698.82 1.05 1.882.981 2.96l.294 51.533H93.49c-.088-11.26-.265-27.336-.265-30.563v-.03zm.52 39.858h-.108c0-1.766-.049-4.569-.088-7.894h4.078v3.898c.04 2.704-1.196 3.996-3.882 3.996z" fill="#A6C4DD"/><path d="M82.843 68.832l-4.363.099a.685.685 0 00-.662.317.695.695 0 000 .738c.142.225.4.348.662.317l4.363-.1a.69.69 0 00.605-.685.69.69 0 00-.605-.686z" fill="#A6C4DD"/><path d="M89.696 40.628H69.608v-13.45h20.088v13.45zM71.01 39.257h17.314V28.549H71.01v10.708z" fill="#002465"/><path d="M88.5 46.283H70.99a.679.679 0 01-.676-.681c0-.376.303-.68.676-.68H88.5c.374 0 .676.304.676.68 0 .376-.302.68-.676.68zM83.804 51.109H70.99a.679.679 0 01-.478-1.16.664.664 0 01.478-.192h12.814a.664.664 0 01.478.193.679.679 0 01-.478 1.159zM86.49 55.934h-15.5a.679.679 0 01-.478-1.159.664.664 0 01.478-.193h15.5a.664.664 0 01.478.193.679.679 0 01-.478 1.159z" fill="#2364F9"/></g></svg>
